X:1
T:Constant Billy
C:Traditional
M:6/8
L:1/8
Q:3/8=100
K:D
A|d2f a2f|g2e d2A|Bcd e2c|d2B A2A|
Bcd e2f|g2e d2B|Bcd e2f|g3 f2d|]
